src/2-landmarks/service-module--take-photo.svg

<svg width="1300" height="1000" fill="none" xmlns="http://www.w3.org/2000/svg"><path fill-rule="evenodd" clip-rule="evenodd" d="M1189.65 333.086c-3.77 1.408-10.81 1.91-12.65 1.914 0 0-8.3-.069-13.14-1.914-5.44-2.079-8.48-4.109-12.16-8.575-2.49-3.022-4.44-8.223-5.32-10.853a22.077 22.077 0 0 1-.8-3.31l-4.09-24.154s-.5-3.492-.49-5.742c.02-5.351.75-8.493 2.92-13.398 2.23-5.038 4.18-7.735 8.27-11.484 4.35-3.996 7.49-5.742 13.13-7.625 4.38-1.462 7.06-1.907 11.68-1.945 4.96.167 6.81.479 11.55 1.945 4.74 1.577 9.58 4.373 13.26 7.625 3.68 3.252 6.26 7.101 8.27 11.484s2.92 8.615 2.92 13.398c0 1.803-.2 3.959-.49 5.742l-4.86 23.833a25.09 25.09 0 0 1-1.01 3.617c-1.04 2.793-3.21 8.177-5.32 10.829-2.92 3.676-7.16 6.929-11.67 8.613Zm-2.46-6.699c-3.04 1.186-8.71 1.609-10.19 1.613 0 0-6.69-.058-10.58-1.613-4.39-1.752-6.83-3.462-9.8-7.226-1.95-2.474-3.48-6.68-4.22-8.951a20.428 20.428 0 0 1-.74-3.184l-3.27-20.155s-.4-2.943-.39-4.839c.02-4.509.6-7.156 2.35-11.29 1.8-4.246 3.37-6.518 6.66-9.677 3.51-3.368 6.04-4.839 10.58-6.426 3.53-1.232 5.68-1.607 9.41-1.639 4 .141 5.49.403 9.3 1.639 3.82 1.329 7.72 3.685 10.69 6.426 2.96 2.74 5.04 5.983 6.66 9.677s2.35 7.26 2.35 11.29c0 1.52-.16 3.337-.39 4.839l-3.88 19.862a24.563 24.563 0 0 1-.93 3.486c-.87 2.407-2.56 6.742-4.21 8.91-2.35 3.098-5.77 5.839-9.4 7.258ZM964 310c0 11.046-8.954 20-20 20s-20-8.954-20-20 8.954-20 20-20 20 8.954 20 20Zm-7 0c0 7.18-5.82 13-13 13s-13-5.82-13-13 5.82-13 13-13 13 5.82 13 13Z" fill="#000"/><path fill-rule="evenodd" clip-rule="evenodd" d="M1279.43 469.162c0-1.662-5.91-57.127-23.43-93.162-15.05-29.175-40.06-34.545-80.18-34.979-36.98-.426-60.32 6.979-85.95 34.197C1069.5 406 1056 428.5 1056 428.5l-42.5-42-25.047-34.394c-2.992-4.281-9.286-7.313-14.375-6.135-7.119 1.649-12.415 9.915-10.427 16.948L972 396l83.24 97.535a5.007 5.007 0 0 0 7.6.066l50.66-59.101-7 52.5-1.28 13H981.16l-27.859-158H974c11.046 0 20-8.954 20-20v-25c0-11.046-8.954-20-20-20h-60c-11.046 0-20 8.954-20 20v25c0 11.046 8.954 20 20 20h20.699L906.84 500H888c-11.046 0-20 8.954-20 20v1c0 11.046 8.954 20 20 20v359h7V541h405v-7H888.5c-7.456 0-13.5-6.044-13.5-13.5s6.044-13.5 13.5-13.5H1300v-7h-21.04c.28-10.498.47-21.054.47-30.838ZM946.193 342l27.859 158h-60.104l27.859-158h4.386Zm325.137 158 .11-27.529h-.01s-4.44-56.684-20.98-91.956c-14.2-28.557-36.99-32.069-74.96-32.494-17.99-.213-58.49 2.979-80.27 32.494C1071 418.021 1057.5 440 1057.5 440l-51.5-50-22.857-34.285a7.22 7.22 0 0 0-6.007-3.215c-4.816 0-8.282 4.626-6.929 9.248L979.5 393.5l77.23 90.32a3 3 0 0 0 4.56.023l57.42-65.487a.97.97 0 0 1 1.7.717l-5.91 68.427-1.23 12.5h119.93l-1.2-12-3.4-68.664a1.235 1.235 0 0 1 1.24-1.324c.61.005 1.13.462 1.21 1.07l7.46 50.009 2.81 30.909h30.01ZM916 284c-8.284 0-15 6.716-15 15v21c0 8.284 6.716 15 15 15h56c8.284 0 15-6.716 15-15v-21c0-8.284-6.716-15-15-15h-56Z" fill="#000"/><path d="M0 900h1300v100H0V900Z" fill="#000"/></svg>

<svg width="1300" height="1000" viewBox="0 0 1300 1000" fill="none" xmlns="http://www.w3.org/2000/svg">
<path fill-rule="evenodd" clip-rule="evenodd" d="M1189.65 333.086C1185.88 334.494 1178.84 334.996 1177 335C1177 335 1168.7 334.931 1163.86 333.086C1158.42 331.007 1155.38 328.977 1151.7 324.511C1149.21 321.489 1147.26 316.288 1146.38 313.658C1146.02 312.579 1145.77 311.47 1145.58 310.348L1141.49 286.194C1141.49 286.194 1140.99 282.702 1141 280.452C1141.02 275.101 1141.75 271.959 1143.92 267.054C1146.15 262.016 1148.1 259.319 1152.19 255.57C1156.54 251.574 1159.68 249.828 1165.32 247.945C1169.7 246.483 1172.38 246.038 1177 246C1181.96 246.167 1183.81 246.479 1188.55 247.945C1193.29 249.522 1198.13 252.318 1201.81 255.57C1205.49 258.822 1208.07 262.671 1210.08 267.054C1212.09 271.437 1213 275.669 1213 280.452C1213 282.255 1212.8 284.411 1212.51 286.194L1207.65 310.027C1207.4 311.256 1207.07 312.468 1206.64 313.644C1205.6 316.437 1203.43 321.821 1201.32 324.473C1198.4 328.149 1194.16 331.402 1189.65 333.086ZM1187.19 326.387C1184.15 327.573 1178.48 327.996 1177 328C1177 328 1170.31 327.942 1166.42 326.387C1162.03 324.635 1159.59 322.925 1156.62 319.161C1154.67 316.687 1153.14 312.481 1152.4 310.21C1152.06 309.171 1151.83 308.105 1151.66 307.026L1148.39 286.871C1148.39 286.871 1147.99 283.928 1148 282.032C1148.02 277.523 1148.6 274.876 1150.35 270.742C1152.15 266.496 1153.72 264.224 1157.01 261.065C1160.52 257.697 1163.05 256.226 1167.59 254.639C1171.12 253.407 1173.27 253.032 1177 253C1181 253.141 1182.49 253.403 1186.3 254.639C1190.12 255.968 1194.02 258.324 1196.99 261.065C1199.95 263.805 1202.03 267.048 1203.65 270.742C1205.27 274.436 1206 278.002 1206 282.032C1206 283.552 1205.84 285.369 1205.61 286.871L1201.73 306.733C1201.5 307.917 1201.2 309.084 1200.8 310.219C1199.93 312.626 1198.24 316.961 1196.59 319.129C1194.24 322.227 1190.82 324.968 1187.19 326.387Z" fill="black"/>
<path fill-rule="evenodd" clip-rule="evenodd" d="M964 310C964 321.046 955.046 330 944 330C932.954 330 924 321.046 924 310C924 298.954 932.954 290 944 290C955.046 290 964 298.954 964 310ZM957 310C957 317.18 951.18 323 944 323C936.82 323 931 317.18 931 310C931 302.82 936.82 297 944 297C951.18 297 957 302.82 957 310Z" fill="black"/>
<path fill-rule="evenodd" clip-rule="evenodd" d="M1279.43 469.162C1279.43 467.5 1273.52 412.035 1256 376C1240.95 346.825 1215.94 341.455 1175.82 341.021C1138.84 340.595 1115.5 348 1089.87 375.218C1069.5 406 1056 428.5 1056 428.5L1013.5 386.5L988.453 352.106C985.461 347.825 979.167 344.793 974.078 345.971C966.959 347.62 961.663 355.886 963.651 362.919L972 396L1055.24 493.535C1057.22 495.881 1060.82 495.913 1062.84 493.601L1113.5 434.5L1106.5 487L1105.22 500H981.16L953.301 342H974C985.046 342 994 333.046 994 322V297C994 285.954 985.046 277 974 277H914C902.954 277 894 285.954 894 297V322C894 333.046 902.954 342 914 342H934.699L906.84 500H888C876.954 500 868 508.954 868 520V521C868 532.046 876.954 541 888 541V900H895V541H1300V534H888.5C881.044 534 875 527.956 875 520.5C875 513.044 881.044 507 888.5 507H1300V500H1278.96C1279.24 489.502 1279.43 478.946 1279.43 469.162ZM946.193 342L974.052 500H913.948L941.807 342H946.193ZM1271.33 500L1271.44 472.471H1271.43C1271.43 472.471 1266.99 415.787 1250.45 380.515C1236.25 351.958 1213.46 348.446 1175.49 348.021C1157.5 347.808 1117 351 1095.22 380.515C1071 418.021 1057.5 440 1057.5 440L1006 390L983.143 355.715C981.804 353.707 979.55 352.5 977.136 352.5C972.32 352.5 968.854 357.126 970.207 361.748L979.5 393.5L1056.73 483.82C1057.92 485.227 1060.09 485.238 1061.29 483.843L1118.71 418.356C1118.89 418.143 1119.16 418.021 1119.44 418.021C1120.01 418.021 1120.46 418.507 1120.41 419.073L1114.5 487.5L1113.27 500H1233.2L1232 488L1228.6 419.336C1228.55 418.618 1229.12 418.005 1229.84 418.012C1230.45 418.017 1230.97 418.474 1231.05 419.082L1238.51 469.091L1241.32 500H1271.33ZM916 284C907.716 284 901 290.716 901 299V320C901 328.284 907.716 335 916 335H972C980.284 335 987 328.284 987 320V299C987 290.716 980.284 284 972 284H916Z" fill="black"/>
<path d="M0 900H1300V1000H0V900Z" fill="black"/>
</svg>
